images/brands/wiz.svg

<svg fill="none" height="180" viewBox="0 0 520 180" width="520" xmlns="http://www.w3.org/2000/svg" xmlns:xlink="http://www.w3.org/1999/xlink"><clipPath id="a"><path d="m164 33h191v95h-191z"/></clipPath><g clip-path="url(#a)"><path d="m221.434 88.2188c.148.2968.593.2968.593 0l10.389-27.0157c.445-1.3359 1.781-2.0781 3.116-2.0781h9.647c1.781 0 3.413 1.4844 3.413 3.2656 0 .4453 0 .7422-.148 1.1875l-23.449 63.0859c0 .149-.742.742-1.335 1.188-.149.148-.446.148-.742.148-.891-.297-1.781-1.039-2.078-1.93l-12.466-30.1325c-.445-.8906-1.484-1.3359-2.375-.8906-.297.1484-.742.4453-.89.8906l-15.731 31.3205c-.149.148-.297.297-.446.148-.148 0-.148-.148-.148-.148l-24.487-63.8283c-.594-1.7813.148-3.7109 1.929-4.3047.445-.1484.742-.2969 1.187-.2969h10.537c1.336 0 2.672.8907 3.117 2.0782l10.388 27.164c.149.2969.594.2969.594 0l13.06-28.3515c.445-.8907 1.484-1.336 2.374-.8907.446.1485.742.4453.891.8907zm119.171-54.9219c-.149-.4453-.891-.4453-1.039 0-.594 2.9687-1.93 7.4219-4.304 9.7969-2.375 2.375-6.827 3.7109-9.795 4.3046-.445.1485-.445.8907 0 1.0391 2.968.5938 7.42 1.9297 9.795 4.3047 3.116 3.1172 4.155 7.4219 4.6 9.9453 0 .1484.594.1484.594 0 .594-2.6719 1.781-7.4219 4.304-9.9453 2.374-2.375 6.827-3.7109 9.795-4.3047.445-.1484.445-.8906 0-1.0391-2.968-.5937-7.421-1.9296-9.795-4.3046-2.226-2.375-3.562-6.8282-4.155-9.7969zm-88.303 29.3906c0-1.7812 1.484-3.4141 3.414-3.4141h10.091c1.781 0 3.414 1.4844 3.414 3.4141v61.8985c0 1.781-1.484 3.414-3.414 3.414h-10.091c-1.781 0-3.414-1.484-3.414-3.414zm46.006 14.25c.149-.4453 0-1.0391-.445-1.1875-.148 0-.297-.1484-.445-.1484h-19.887c-1.78 0-3.413-1.4844-3.413-3.4141v-9.5c0-1.7812 1.484-3.4141 3.413-3.4141h46.155c1.484 0 3.413 1.1875 2.671 2.375l-26.713 49.8746c-.297.446 0 1.04.445 1.188.149 0 .297.148.446.148h24.338c1.781 0 3.414 1.485 3.414 3.414v8.313c0 1.781-1.484 3.414-3.414 3.414h-48.974c-1.632 0-1.929-2.375-1.187-3.859z" fill="#325fe8"/></g></svg>

<svg width="520" height="180" viewBox="0 0 520 180" fill="none" xmlns="http://www.w3.org/2000/svg">
<g clip-path="url(#clip0_2001_107)">
<path d="M221.434 88.2188C221.582 88.5156 222.027 88.5156 222.027 88.2188L232.416 61.2031C232.861 59.8672 234.197 59.125 235.532 59.125H245.179C246.96 59.125 248.592 60.6094 248.592 62.3906C248.592 62.8359 248.592 63.1328 248.444 63.5781L224.995 126.664C224.995 126.813 224.253 127.406 223.66 127.852C223.511 128 223.214 128 222.918 128C222.027 127.703 221.137 126.961 220.84 126.07L208.374 95.9375C207.929 95.0469 206.89 94.6016 205.999 95.0469C205.702 95.1953 205.257 95.4922 205.109 95.9375L189.378 127.258C189.229 127.406 189.081 127.555 188.932 127.406C188.784 127.406 188.784 127.258 188.784 127.258L164.297 63.4297C163.703 61.6484 164.445 59.7188 166.226 59.125C166.671 58.9766 166.968 58.8281 167.413 58.8281H177.95C179.286 58.8281 180.622 59.7188 181.067 60.9063L191.455 88.0703C191.604 88.3672 192.049 88.3672 192.049 88.0703L205.109 59.7188C205.554 58.8281 206.593 58.3828 207.483 58.8281C207.929 58.9766 208.225 59.2734 208.374 59.7188L221.434 88.2188ZM340.605 33.2969C340.456 32.8516 339.714 32.8516 339.566 33.2969C338.972 36.2656 337.636 40.7188 335.262 43.0938C332.887 45.4688 328.435 46.8047 325.467 47.3984C325.022 47.5469 325.022 48.2891 325.467 48.4375C328.435 49.0313 332.887 50.3672 335.262 52.7422C338.378 55.8594 339.417 60.1641 339.862 62.6875C339.862 62.8359 340.456 62.8359 340.456 62.6875C341.05 60.0156 342.237 55.2656 344.76 52.7422C347.134 50.3672 351.587 49.0313 354.555 48.4375C355 48.2891 355 47.5469 354.555 47.3984C351.587 46.8047 347.134 45.4688 344.76 43.0938C342.534 40.7188 341.198 36.2656 340.605 33.2969ZM252.302 62.6875C252.302 60.9063 253.786 59.2734 255.716 59.2734H265.807C267.588 59.2734 269.221 60.7578 269.221 62.6875V124.586C269.221 126.367 267.737 128 265.807 128H255.716C253.935 128 252.302 126.516 252.302 124.586V62.6875ZM298.308 76.9375C298.457 76.4922 298.308 75.8984 297.863 75.75C297.715 75.75 297.566 75.6016 297.418 75.6016H277.531C275.751 75.6016 274.118 74.1172 274.118 72.1875V62.6875C274.118 60.9063 275.602 59.2734 277.531 59.2734H323.686C325.17 59.2734 327.099 60.4609 326.357 61.6484L299.644 111.523C299.347 111.969 299.644 112.563 300.089 112.711C300.238 112.711 300.386 112.859 300.535 112.859H324.873C326.654 112.859 328.287 114.344 328.287 116.273V124.586C328.287 126.367 326.803 128 324.873 128H275.899C274.267 128 273.97 125.625 274.712 124.141L298.308 76.9375Z" fill="#325FE8"/>
</g>
<defs>
<clipPath id="clip0_2001_107">
<rect width="191" height="95" fill="white" transform="translate(164 33)"/>
</clipPath>
</defs>
</svg>
